svg/fluentui-system-icons/ic_fluent_textbox_align_top_rotate_90_24_regular.svg

<svg width="24" height="24" viewBox="0 0 24 24" fill="none" xmlns="http://www.w3.org/2000/svg">
<path d="M18.25 21C19.7688 21 21 19.7688 21 18.25V5.75C21 4.23122 19.7688 3 18.25 3H5.75C4.23122 3 3 4.23122 3 5.75V18.25C3 19.7688 4.23122 21 5.75 21H18.25ZM19.5 5.75V18.25C19.5 18.9404 18.9404 19.5 18.25 19.5H5.75C5.05964 19.5 4.5 18.9404 4.5 18.25V5.75C4.5 5.05964 5.05964 4.5 5.75 4.5H18.25C18.9404 4.5 19.5 5.05964 19.5 5.75ZM16.5 6.75V17.25C16.5 17.6642 16.1642 18 15.75 18C15.3703 18 15.0565 17.7178 15.0068 17.3518L15 17.25V6.75C15 6.33579 15.3358 6 15.75 6C16.1297 6 16.4435 6.28215 16.4932 6.64823L16.5 6.75ZM13.5 17.25V6.75L13.4932 6.64823C13.4435 6.28215 13.1297 6 12.75 6C12.3358 6 12 6.33579 12 6.75V17.25L12.0068 17.3518C12.0565 17.7178 12.3703 18 12.75 18C13.1642 18 13.5 17.6642 13.5 17.25Z" fill="#212121"/>
</svg>

<svg xmlns="http://www.w3.org/2000/svg" width="24" height="24"><path d="M18.25 21A2.75 2.75 0 0 0 21 18.25V5.75A2.75 2.75 0 0 0 18.25 3H5.75A2.75 2.75 0 0 0 3 5.75v12.5A2.75 2.75 0 0 0 5.75 21h12.5ZM19.5 5.75v12.5c0 .69-.56 1.25-1.25 1.25H5.75c-.69 0-1.25-.56-1.25-1.25V5.75c0-.69.56-1.25 1.25-1.25h12.5c.69 0 1.25.56 1.25 1.25Zm-3 1v10.5a.75.75 0 0 1-1.493.102L15 17.25V6.75a.75.75 0 0 1 1.493-.102l.007.102Zm-3 10.5V6.75l-.007-.102A.75.75 0 0 0 12 6.75v10.5l.007.102a.75.75 0 0 0 1.493-.102Z"/></svg>
